Icons/Colored/HeartOutline.svg

<svg xmlns="http://www.w3.org/2000/svg" xml:space="preserve" fill-rule="evenodd" stroke-linejoin="round" stroke-miterlimit="2" clip-rule="evenodd" viewBox="0 0 64 64">
  <g id="red">
    <path fill="#ff2721" d="M32.123 53.376S9.955 38.678 6.189 27.994c-3.851-8.089 2.017-17.465 10.868-17.369 7.164 0 15.078 7.737 15.078 7.737s7.963-7.737 15.282-7.737c7.318 0 14.34 6.666 10.522 17.369-5.513 10.908-25.816 25.382-25.816 25.382Zm-.064-4.906c5.209-3.893 17.948-13.935 22.196-22.062 1.018-2.988.979-5.528.088-7.513-1.238-2.758-4.064-4.27-6.926-4.27-2.255 0-4.558 1.047-6.547 2.191-3.416 1.965-5.947 4.415-5.947 4.415l-2.797 2.717-2.787-2.726s-2.517-2.451-5.892-4.417c-1.95-1.135-4.199-2.18-6.412-2.18h-.021c-5.92-.065-9.788 6.24-7.214 11.649l.091.191.07.199c1.337 3.792 5.416 8.05 9.674 11.92 4.639 4.216 9.615 7.896 12.424 9.886Z"/>
  </g>
</svg>

<?xml version="1.0" encoding="UTF-8" standalone="no"?>
<!DOCTYPE svg PUBLIC "-//W3C//DTD SVG 1.1//EN" "http://www.w3.org/Graphics/SVG/1.1/DTD/svg11.dtd">
<svg width="100%" height="100%" viewBox="0 0 64 64" version="1.1" xmlns="http://www.w3.org/2000/svg" xmlns:xlink="http://www.w3.org/1999/xlink" xml:space="preserve" xmlns:serif="http://www.serif.com/" style="fill-rule:evenodd;clip-rule:evenodd;stroke-linejoin:round;stroke-miterlimit:2;">
    <path d="M32.123,53.376C32.123,53.376 9.955,38.678 6.189,27.994C2.338,19.905 8.206,10.529 17.057,10.625C24.221,10.625 32.135,18.362 32.135,18.362C32.135,18.362 40.098,10.625 47.417,10.625C54.735,10.625 61.757,17.291 57.939,27.994C52.426,38.902 32.123,53.376 32.123,53.376ZM32.059,48.47C37.268,44.577 50.007,34.535 54.255,26.408C55.273,23.42 55.234,20.88 54.343,18.895C53.105,16.137 50.279,14.625 47.417,14.625C45.162,14.625 42.859,15.672 40.87,16.816C37.454,18.781 34.923,21.231 34.923,21.231L32.126,23.948L29.339,21.222C29.339,21.222 26.822,18.771 23.447,16.805C21.497,15.67 19.248,14.625 17.035,14.625L17.014,14.625C11.094,14.56 7.226,20.865 9.8,26.274L9.891,26.465L9.961,26.664C11.298,30.456 15.377,34.714 19.635,38.584C24.274,42.8 29.25,46.48 32.059,48.47Z" style="fill:#ff2721;"/>
</svg>
